X: 1
T: Gut Morgn
R: waltz
Z: 2006 John Chambers <jc:trillian.mit.edu> 
S: Budowitz: Mother Tongue
N: From printed transcription by Steve Rauch
M: 3/4
L: 1/8
K: Am
"A"\
|: "Am"E2 c2 BA | ^G2 A2 BA | "E"^G3  E  FD | E6 \
|  "Am"E2 e2 dc |  B2 c2 dc | "E" B2 e2  Be | B4 (3Bc^c |
|  "Dm"d3  c BA | ^G2 A2 Bc | "E" B3  A ^GF | E2 F4 \
|  "Dm"D2 c2 BA | ^G3  E FD | "E" E3  F ^GA | B6 :|
"B"\
|: "Am"e2 ^d2  e2 |  c6    |   e^d ^fe dc |  "E"B6 \
|  "Am"eA  Bc ^de | ^d4 c2 | "E"BE e^d cB | "Am"A6 :|
"C"\
|: "Am"cB A^G Ac | "E"BA ^GE  GB | "Dm"A^G AG  FE | A2 D4 \
|  "Dm"DE F2 ^GA |    dc  BA ^GF |  "E"EF  EF ^GA | B6 :|
